img/quotes.svg

<svg width="127" height="114" viewBox="0 0 127 114" fill="none" xmlns="http://www.w3.org/2000/svg">
<path d="M80 114C77.7909 114 76 112.209 76 110V57.6706C76 42.3216 80.5833 29.7294 89.75 19.8941C98.9167 9.90981 111.333 3.27843 127 0V25.0353C122.167 26.3765 118.25 28.0157 115.25 29.953C112.25 31.8902 109.917 34.2 108.25 36.8824C106.583 39.5647 105.5 42.6941 105 46.2706C104.5 49.698 104.25 53.498 104.25 57.6706V63.7059H123C125.209 63.7059 127 65.4967 127 67.7059V110C127 112.209 125.209 114 123 114H80ZM4 114C1.79086 114 0 112.209 0 110V57.6706C0 42.3216 4.58333 29.7294 13.75 19.8941C22.9167 9.90981 35.3333 3.27843 51 0V25.0353C46.1667 26.3765 42.25 28.0157 39.25 29.953C36.25 31.8902 33.9167 34.2 32.25 36.8824C30.75 39.5647 29.6667 42.6941 29 46.2706C28.5 49.698 28.25 53.498 28.25 57.6706V63.7059H47C49.2091 63.7059 51 65.4967 51 67.7059V110C51 112.209 49.2091 114 47 114H4Z" fill="#BEC0DC"/>
</svg>

<svg width="127" height="114" fill="none" xmlns="http://www.w3.org/2000/svg"><path d="M80 114a4 4 0 01-4-4V57.67c0-15.348 4.583-27.94 13.75-37.776C98.917 9.91 111.333 3.278 127 0v25.035c-4.833 1.341-8.75 2.98-11.75 4.918-3 1.937-5.333 4.247-7 6.93-1.667 2.682-2.75 5.811-3.25 9.388-.5 3.427-.75 7.227-.75 11.4v6.035H123a4 4 0 014 4V110a4 4 0 01-4 4H80zm-76 0a4 4 0 01-4-4V57.67c0-15.348 4.583-27.94 13.75-37.776C22.917 9.91 35.333 3.278 51 0v25.035c-4.833 1.341-8.75 2.98-11.75 4.918-3 1.937-5.333 4.247-7 6.93-1.5 2.682-2.583 5.811-3.25 9.388-.5 3.427-.75 7.227-.75 11.4v6.035H47a4 4 0 014 4V110a4 4 0 01-4 4H4z" fill="#BEC0DC"/></svg>
